packages/core/src/svgs/tokens/mono/GHO.svg

<svg width="24" height="24" viewBox="0 0 24 24" fill="none" xmlns="http://www.w3.org/2000/svg">
<path d="M15.0267 11.9999H18.9001L22 17.3333V20.6667H10.1801C5.66001 20.6667 2 16.9266 2 12.3066V11.6933C2 7.0666 5.66667 3.33325 10.1801 3.33325H15.1467L17.0667 6.6666H10.58C9.18546 6.68418 7.85491 7.25415 6.88007 8.25147C5.90523 9.24887 5.36578 10.5921 5.38001 11.9867C5.38001 14.92 7.70668 17.3333 10.58 17.3333H18.1267L15.0267 11.9999ZM11.3334 9.66654C11.3334 10.1086 11.1577 10.5325 10.8452 10.8452C10.5326 11.1577 10.1087 11.3333 9.66675 11.3333C9.22466 11.3333 8.80074 11.1577 8.48818 10.8452C8.1756 10.5325 8.00001 10.1086 8.00001 9.66654C8.00001 9.22461 8.1756 8.80066 8.48818 8.4881C8.80074 8.17552 9.22466 7.99993 9.66675 7.99993C10.1087 7.99993 10.5326 8.17552 10.8452 8.4881C11.1577 8.80066 11.3334 9.22461 11.3334 9.66654ZM11.3334 14.3332C11.3334 14.7753 11.1577 15.1992 10.8452 15.5119C10.5326 15.8244 10.1087 16 9.66675 16C9.22466 16 8.80074 15.8244 8.48818 15.5119C8.1756 15.1992 8.00001 14.7753 8.00001 14.3332C8.00001 13.8913 8.1756 13.4674 8.48818 13.1547C8.80074 12.8422 9.22466 12.6666 9.66675 12.6666C10.1087 12.6666 10.5326 12.8422 10.8452 13.1547C11.1577 13.4674 11.3334 13.8913 11.3334 14.3332Z" fill="white"/>
</svg>

<svg xmlns="http://www.w3.org/2000/svg" width="24" height="24" fill="none" viewBox="0 0 24 24">
    <path fill="#fff" d="M15.027 12H18.9l3.1 5.333v3.334H10.18c-4.52 0-8.18-3.74-8.18-8.36v-.614c0-4.626 3.667-8.36 8.18-8.36h4.967l1.92 3.334H10.58a5.267 5.267 0 0 0-5.2 5.32c0 2.933 2.327 5.346 5.2 5.346h7.547zm-3.694-2.333a1.667 1.667 0 1 1-3.335 0 1.667 1.667 0 0 1 3.335 0m0 4.666a1.668 1.668 0 1 1-3.335 0 1.668 1.668 0 0 1 3.335 0"/>
</svg>
